lib/brands/logos/firebase.svg

<svg xmlns="http://www.w3.org/2000/svg" fill="none" aria-hidden="true" viewBox="0 0 197 69"><g id="Firebase"><g id="Group"><path id="Vector" fill="black" d="M60.8807 48.4709H57.374V21.3899H73.3V24.717H60.8811V33.6081H72.0829V36.8584H60.8811V48.4709L60.8807 48.4709ZM79.8937 25.2873C79.0577 26.1207 77.745 26.2516 76.7588 25.6C75.7725 24.9484 75.3875 23.6958 75.8394 22.6087C76.2914 21.5216 77.4541 20.9028 78.6163 21.1311C79.7785 21.3593 80.6163 22.371 80.6171 23.5469C80.6284 24.2019 80.3654 24.8321 79.8908 25.2873H79.8937H79.8937ZM79.8937 48.4709H76.387V29.9382H79.8937V48.4709V48.4709ZM87.5887 48.4709H84.082V29.9382H87.434V32.964H87.5858C87.9907 31.8978 88.7683 31.0116 89.7767 30.4672C90.7398 29.8535 91.8536 29.5132 92.9976 29.4832C93.8958 29.4579 94.7897 29.6126 95.6262 29.9382L94.2926 33.1885C93.6911 32.9899 93.0591 32.8998 92.4261 32.9226C91.1402 32.9291 89.9164 33.4716 89.0534 34.4178C88.075 35.4145 87.5858 36.7196 87.5858 38.3329L87.5888 48.4709L87.5887 48.4709ZM105.235 49.0618C102.415 49.0618 100.123 48.1291 98.3589 46.2639C96.5947 44.3987 95.7115 42.0454 95.7095 39.2048C95.6577 36.6472 96.5757 34.1637 98.2815 32.2462C99.9153 30.3376 102.332 29.2664 104.854 29.3323C107.623 29.3323 109.839 30.2277 111.504 32.0183C113.17 33.8089 114.001 36.2043 113.999 39.2044L113.96 39.8486H99.2098C99.311 41.714 99.9401 43.1915 101.097 44.2808C102.179 45.335 103.638 45.9196 105.154 45.906C107.669 45.906 109.37 44.8468 110.259 42.7296L113.385 44.0149C112.752 45.4802 111.707 46.7337 110.376 47.6257C108.977 48.5831 107.263 49.0617 105.235 49.0617L105.235 49.0618ZM110.266 36.947C110.191 35.8873 109.702 34.8787 108.799 33.9213C107.896 32.9639 106.553 32.4951 104.771 32.5148C103.535 32.4933 102.334 32.9246 101.398 33.7263C100.418 34.5792 99.7316 35.716 99.4365 36.9766L110.266 36.947L110.266 36.947ZM126.668 49.0618C125.342 49.0879 124.03 48.7831 122.852 48.1754C121.818 47.6578 120.943 46.874 120.319 45.9061H120.167V48.4709H116.812V21.3899H120.319V29.9382L120.167 32.509H120.319C120.943 31.541 121.818 30.7572 122.852 30.2397C124.028 29.6248 125.34 29.3129 126.668 29.3325C129.082 29.3325 131.165 30.2781 132.92 32.1692C134.674 34.0603 135.55 36.4054 135.548 39.2046C135.546 42.0038 134.672 44.3489 132.92 46.24C131.167 48.1311 129.084 49.0717 126.668 49.0619L126.668 49.0618ZM126.097 45.8854C127.694 45.898 129.22 45.2298 130.288 44.0504C131.457 42.8271 132.042 41.2069 132.042 39.1897C132.042 37.1725 131.457 35.5524 130.288 34.329C129.208 33.1637 127.687 32.4992 126.092 32.4958C124.497 32.4924 122.973 33.1506 121.888 34.3112C120.733 35.5207 120.155 37.1469 120.155 39.1896C120.155 41.2324 120.739 42.8635 121.905 44.0828C122.98 45.2579 124.51 45.9194 126.109 45.9001L126.097 45.8853L126.097 45.8854ZM144.476 49.0618C142.491 49.0618 140.834 48.4945 139.504 47.3599C138.175 46.2253 137.508 44.7252 137.504 42.8597C137.504 40.8425 138.292 39.2607 139.868 38.1142C141.443 36.9677 143.386 36.3945 145.696 36.3945C147.754 36.3945 149.442 36.7727 150.757 37.5291V37.0003C150.807 35.7546 150.289 34.5529 149.346 33.7293C148.386 32.9085 147.15 32.4751 145.884 32.5148C144.915 32.5028 143.96 32.7506 143.121 33.2329C142.336 33.6649 141.733 34.3636 141.425 35.2008L138.225 33.8386C138.657 32.7256 139.509 31.6934 140.783 30.7419C142.057 29.7905 143.73 29.3177 145.813 29.3236C148.195 29.3236 150.179 30.0131 151.767 31.392C153.355 32.7708 154.143 34.725 154.131 37.2543V48.4709H150.767V45.9002H150.615C149.216 48.008 147.171 49.0579 144.48 49.0579L144.476 49.0618ZM145.047 45.8854C146.521 45.8802 147.935 45.3095 148.995 44.2927C150.123 43.3481 150.777 41.9584 150.781 40.4928C149.788 39.6851 148.3 39.2813 146.315 39.2813C144.613 39.2813 143.33 39.6467 142.466 40.3775C141.661 40.9922 141.184 41.9396 141.172 42.9482C141.155 43.8259 141.608 44.6469 142.363 45.1052C143.156 45.6344 144.092 45.9117 145.048 45.9001V45.8853L145.047 45.8854ZM164.441 49.0618C162.358 49.0618 160.637 48.5575 159.28 47.5489C157.959 46.5807 156.93 45.273 156.303 43.7668L159.428 42.4814C160.421 44.802 162.108 45.9622 164.489 45.9622C165.435 46.0007 166.37 45.7501 167.168 45.2442C167.826 44.8387 168.223 44.1218 168.216 43.3531C168.216 42.1436 167.365 41.3241 165.658 40.8947L161.886 39.9875C160.645 39.6616 159.489 39.0752 158.496 38.2678C157.438 37.4494 156.842 36.176 156.894 34.8462C156.894 33.2074 157.624 31.8775 159.085 30.8571C160.613 29.8161 162.433 29.2804 164.286 29.3265C165.832 29.302 167.358 29.6886 168.703 30.4464C169.973 31.1623 170.956 32.2916 171.483 33.6435L168.438 34.8786C167.753 33.2398 166.331 32.4202 164.169 32.4202C163.25 32.3898 162.34 32.6128 161.541 33.0643C160.886 33.4012 160.475 34.0725 160.475 34.8047C160.475 35.8645 161.301 36.5836 162.952 36.9618L166.646 37.8334C168.398 38.2274 169.694 38.9169 170.534 39.9018C171.347 40.8219 171.794 42.0051 171.79 43.229C171.806 44.8607 171.043 46.4038 169.733 47.3893C168.362 48.5043 166.597 49.0618 164.437 49.0618L164.441 49.0618ZM183.302 49.0618C180.482 49.0618 178.19 48.1291 176.426 46.2639C174.662 44.3987 173.778 42.0401 173.776 39.1898C173.725 36.6322 174.643 34.1487 176.348 32.2312C177.988 30.3274 180.408 29.2619 182.93 29.3325C185.708 29.3325 187.925 30.2278 189.58 32.0184C191.235 33.809 192.067 36.2044 192.075 39.2046L192.036 39.8487H177.274C177.375 41.7141 178.004 43.1916 179.161 44.2809C180.246 45.3351 181.709 45.9177 183.228 45.9001C185.742 45.9001 187.444 44.8409 188.333 42.7237L191.458 44.009C190.825 45.4744 189.78 46.7279 188.449 47.6198C187.05 48.5811 185.334 49.0617 183.302 49.0617L183.302 49.0618ZM188.333 36.947C188.258 35.8873 187.769 34.8787 186.866 33.9213C185.963 32.9639 184.622 32.4951 182.844 32.5148C181.608 32.4936 180.407 32.9249 179.471 33.7263C178.491 34.5792 177.805 35.716 177.51 36.9766L188.333 36.947V36.947Z" opacity="0.54"/><g id="Group_2"><path id="Vector_2" fill="#FFA000" d="M4.9458 50.5498L11.3939 9.28884C11.4728 8.78281 11.8663 8.38391 12.3712 8.29813C12.8761 8.21235 13.3793 8.45913 13.6207 8.91076L20.2892 21.3485L22.9473 16.2877C23.1531 15.8963 23.5589 15.6513 24.0011 15.6513C24.4433 15.6513 24.8491 15.8963 25.055 16.2877L43.0508 50.5497H4.9458V50.5498Z"/><path id="Vector_3" fill="#F57C00" d="M27.2227 34.477L20.2864 21.3425L4.94604 50.5497L27.2227 34.477Z"/><path id="Vector_4" fill="#FFCA28" d="M43.0513 50.5496L38.1125 19.988C38.0379 19.5491 37.7247 19.1886 37.3005 19.0527C36.8764 18.9168 36.4122 19.0299 36.0971 19.3445L4.94604 50.5492L22.1827 60.2155C23.2651 60.8198 24.5834 60.8198 25.6658 60.2155L43.0513 50.5492V50.5496Z"/><path id="Vector_5" fill="white" fill-opacity="0.2" d="M38.1123 19.9881C38.0377 19.5492 37.7245 19.1886 37.3003 19.0527C36.8762 18.9168 36.412 19.03 36.0969 19.3446L29.9142 25.5431L25.0523 16.2874C24.8465 15.8961 24.4407 15.6511 23.9985 15.6511C23.5563 15.6511 23.1505 15.8961 22.9446 16.2874L20.2866 21.3483L13.6177 8.91072C13.3759 8.45897 12.8722 8.21259 12.3667 8.29901C11.8612 8.38543 11.4689 8.78533 11.391 9.29176L4.94583 50.5497H4.92505L4.94583 50.5735L5.11551 50.6569L36.0879 19.6487C36.4028 19.3323 36.8682 19.2186 37.2935 19.3541C37.7187 19.4896 38.0325 19.8515 38.1064 20.2917L43.0035 50.5794L43.0512 50.5496L38.1124 19.988L38.1123 19.9881ZM5.00239 50.4932L11.394 9.58355C11.4718 9.07712 11.865 8.67721 12.3701 8.5908C12.8751 8.50438 13.3789 8.75068 13.6211 9.20251L20.2892 21.6403L22.9473 16.5794C23.1531 16.1881 23.559 15.9431 24.0012 15.9431C24.4433 15.9431 24.8491 16.1881 25.055 16.5794L29.8182 25.6383L5.00211 50.4932H5.00239Z"/><path id="Vector_6" fill="#A52714" d="M25.6656 59.9243C24.5832 60.5287 23.2649 60.5287 22.1825 59.9243L4.98749 50.2849L4.9458 50.5499L22.1825 60.2132C23.2649 60.8176 24.5831 60.8176 25.6655 60.2132L43.0511 50.5499L43.0064 50.2761L25.6656 59.9244V59.9243Z" opacity="0.2"/><path id="Vector_7" fill="url(#paint0_linear_93_15033)" d="M38.063 19.9943C37.9886 19.5556 37.6764 19.1949 37.2538 19.0598C36.8311 18.9247 36.3685 19.037 36.0546 19.3516L29.8931 25.547L25.0486 16.2956C24.8435 15.9044 24.4391 15.6595 23.9985 15.6595C23.5579 15.6595 23.1535 15.9044 22.9483 16.2956L20.2992 21.3543L13.6541 8.92184C13.4131 8.47029 12.9111 8.22395 12.4078 8.31041C11.9045 8.39687 11.5127 8.79645 11.4351 9.30276L5.01245 50.5426L22.1889 60.2017C23.2675 60.8057 24.5811 60.8057 25.6598 60.2017L42.9845 50.5426L38.063 19.9943V19.9943Z"/></g></g></g><defs><linearGradient id="paint0_linear_93_15033" x1="3.68723" x2="51.073" y1="17.2052" y2="42.2006" gradientUnits="userSpaceOnUse"><stop stop-color="white" stop-opacity="0.1"/><stop offset="0.14" stop-color="white" stop-opacity="0.08"/><stop offset="0.61" stop-color="white" stop-opacity="0.02"/><stop offset="1" stop-color="white" stop-opacity="0"/></linearGradient></defs></svg>

<svg xmlns="http://www.w3.org/2000/svg" fill="none" aria-hidden="true" viewBox="0 0 197 69"><path fill="#000" d="M60.88 48.47h-3.506V21.39H73.3v3.327H60.88v8.891h11.202v3.25H60.88v11.613Zm19.014-23.183a2.496 2.496 0 0 1-3.135.313 2.454 2.454 0 0 1-.92-2.991 2.486 2.486 0 0 1 2.777-1.478 2.47 2.47 0 0 1 2.001 2.416 2.355 2.355 0 0 1-.726 1.74h.003Zm0 23.184h-3.507V29.938h3.507v18.533Zm7.695 0h-3.507V29.938h3.352v3.026h.152a4.76 4.76 0 0 1 2.19-2.497 6.301 6.301 0 0 1 3.222-.984 6.724 6.724 0 0 1 2.628.455l-1.334 3.25a5.34 5.34 0 0 0-1.866-.265 4.596 4.596 0 0 0-3.373 1.495c-.978.996-1.467 2.302-1.467 3.915l.003 10.138Zm17.646.59c-2.82 0-5.112-.932-6.876-2.797-1.764-1.865-2.647-4.219-2.65-7.06a10.158 10.158 0 0 1 2.572-6.958 8.364 8.364 0 0 1 6.573-2.914c2.769 0 4.985.896 6.65 2.686s2.497 4.186 2.495 7.186l-.039.645H99.21c.101 1.865.73 3.343 1.887 4.432a5.74 5.74 0 0 0 4.057 1.625c2.515 0 4.216-1.06 5.105-3.176l3.126 1.285a8.318 8.318 0 0 1-3.01 3.61c-1.398.958-3.112 1.437-5.141 1.437h.001Zm5.031-12.114c-.075-1.06-.564-2.068-1.467-3.026-.903-.957-2.246-1.426-4.028-1.406a5.051 5.051 0 0 0-3.373 1.211 6.177 6.177 0 0 0-1.962 3.25l10.83-.029Zm16.402 12.115a7.98 7.98 0 0 1-3.816-.887 6.445 6.445 0 0 1-2.533-2.269h-.152v2.565h-3.355V21.39h3.507v8.548l-.152 2.571h.152a6.443 6.443 0 0 1 2.533-2.27 7.982 7.982 0 0 1 3.816-.907c2.414 0 4.497.946 6.252 2.837 1.754 1.891 2.63 4.236 2.628 7.036-.002 2.799-.876 5.144-2.628 7.035-1.753 1.891-3.836 2.832-6.252 2.822Zm-.571-3.177a5.595 5.595 0 0 0 4.191-1.835c1.169-1.223 1.753-2.843 1.753-4.86 0-2.017-.584-3.638-1.753-4.861a5.738 5.738 0 0 0-4.196-1.833 5.739 5.739 0 0 0-4.204 1.815c-1.155 1.21-1.733 2.836-1.733 4.879 0 2.042.583 3.674 1.75 4.893a5.605 5.605 0 0 0 4.204 1.817l-.012-.015Zm18.379 3.177c-1.985 0-3.642-.567-4.972-1.702-1.329-1.135-1.996-2.635-2-4.5 0-2.017.788-3.6 2.364-4.746 1.575-1.146 3.518-1.72 5.828-1.72 2.058 0 3.745.379 5.061 1.135V37a4.123 4.123 0 0 0-1.411-3.27 5.084 5.084 0 0 0-3.462-1.215 5.411 5.411 0 0 0-2.763.718 3.712 3.712 0 0 0-1.696 1.968l-3.201-1.362c.433-1.113 1.285-2.146 2.559-3.097 1.274-.951 2.947-1.424 5.03-1.418 2.382 0 4.366.69 5.954 2.068 1.588 1.379 2.376 3.333 2.364 5.862v11.217h-3.364V45.9h-.152c-1.399 2.107-3.444 3.157-6.135 3.157l-.004.004Zm.571-3.177a5.732 5.732 0 0 0 3.948-1.592 4.976 4.976 0 0 0 1.786-3.8c-.993-.808-2.481-1.212-4.466-1.212-1.702 0-2.985.366-3.849 1.096a3.288 3.288 0 0 0-1.295 2.571 2.471 2.471 0 0 0 1.192 2.157c.793.53 1.729.807 2.685.795v-.015h-.001Zm19.394 3.177c-2.084 0-3.804-.505-5.162-1.513a8.965 8.965 0 0 1-2.976-3.782l3.125-1.286c.993 2.321 2.679 3.481 5.061 3.481a4.651 4.651 0 0 0 2.679-.718 2.199 2.199 0 0 0 1.048-1.89c0-1.21-.851-2.03-2.558-2.46l-3.772-.907a8.995 8.995 0 0 1-3.39-1.72 4.122 4.122 0 0 1-1.602-3.42c0-1.64.73-2.97 2.191-3.99a8.847 8.847 0 0 1 5.2-1.53 8.722 8.722 0 0 1 4.418 1.12 6.306 6.306 0 0 1 2.78 3.197l-3.045 1.235c-.685-1.64-2.107-2.459-4.269-2.459a5.007 5.007 0 0 0-2.628.644 1.958 1.958 0 0 0-1.066 1.74c0 1.06.826 1.78 2.477 2.158l3.694.871c1.752.394 3.048 1.084 3.888 2.069a5 5 0 0 1 1.256 3.327 5.144 5.144 0 0 1-2.057 4.16c-1.371 1.115-3.137 1.673-5.296 1.673h.004Zm18.861 0c-2.82 0-5.112-.933-6.876-2.798-1.764-1.865-2.648-4.224-2.65-7.074a10.166 10.166 0 0 1 2.572-6.959 8.379 8.379 0 0 1 6.582-2.899c2.778 0 4.995.896 6.65 2.686 1.655 1.791 2.487 4.186 2.495 7.187l-.039.644h-14.762c.101 1.865.73 3.343 1.887 4.432a5.74 5.74 0 0 0 4.066 1.62c2.515 0 4.217-1.06 5.106-3.177l3.125 1.285a8.321 8.321 0 0 1-3.009 3.61c-1.399.962-3.115 1.443-5.147 1.443Zm5.031-12.115c-.075-1.06-.564-2.068-1.467-3.026-.903-.957-2.244-1.426-4.022-1.406a5.054 5.054 0 0 0-3.373 1.211 6.183 6.183 0 0 0-1.962 3.25l10.824-.029Z" opacity=".54"/><path fill="#FFA000" d="m4.946 50.55 6.448-41.261a1.191 1.191 0 0 1 2.227-.378l6.668 12.438 2.658-5.061a1.19 1.19 0 0 1 2.108 0L43.051 50.55H4.946Z"/><path fill="#F57C00" d="m27.223 34.477-6.937-13.134L4.946 50.55l22.277-16.073Z"/><path fill="#FFCA28" d="m43.051 50.55-4.939-30.562a1.192 1.192 0 0 0-2.015-.643L4.946 50.549l17.237 9.666c1.082.605 2.4.605 3.483 0L43.05 50.55Z"/><path fill="#fff" fill-opacity=".2" d="M38.112 19.988a1.192 1.192 0 0 0-2.015-.643l-6.183 6.198-4.862-9.256a1.19 1.19 0 0 0-2.107 0l-2.659 5.061-6.668-12.437a1.191 1.191 0 0 0-2.227.38L4.946 50.55h-.021l.02.024.17.083 30.973-31.008a1.19 1.19 0 0 1 2.018.643l4.897 30.287.048-.03-4.939-30.561ZM5.002 50.493l6.392-40.91a1.19 1.19 0 0 1 2.227-.38L20.29 21.64l2.658-5.06a1.191 1.191 0 0 1 2.108 0l4.763 9.058L5.002 50.493Z"/><path fill="#A52714" d="M25.666 59.924a3.573 3.573 0 0 1-3.483 0L4.986 50.285l-.041.265 17.236 9.663a3.57 3.57 0 0 0 3.484 0L43.05 50.55l-.045-.274-17.34 9.648Z" opacity=".2"/><path fill="url(#a)" d="M38.063 19.994a1.184 1.184 0 0 0-2.008-.643l-6.162 6.196-4.844-9.252a1.186 1.186 0 0 0-2.1 0l-2.65 5.06-6.645-12.433a1.185 1.185 0 0 0-2.219.38l-6.423 41.24 17.177 9.66a3.55 3.55 0 0 0 3.47 0l17.325-9.66-4.921-30.548Z"/><defs><linearGradient id="a" x1="3.687" x2="51.073" y1="17.205" y2="42.201" gradientUnits="userSpaceOnUse"><stop stop-color="#fff" stop-opacity=".1"/><stop offset=".14" stop-color="#fff" stop-opacity=".08"/><stop offset=".61" stop-color="#fff" stop-opacity=".02"/><stop offset="1" stop-color="#fff" stop-opacity="0"/></linearGradient></defs></svg>
